**kern	**kern
*staff2	*staff1
*clefF4	*clefG2
*3/4	*3/4
*k[b-]	*k[b-]
*F:	*F
=-	=-
8F]	(8f
4r	8eL 8g
.	8e-J) 8a
=13	=13
*^	*
(2d	[2.F	(8b-L)
.	.	8aJ
.	.	8b-L
.	.	8ddJ
4e)	.	8ccL
.	.	8b-J)
=14	=14	=14
4f	4F]	8g#L
.	.	8aJ
8F'L	4r	8r
(8FJ	.	(8a
8GL	4r	8b-L
8AJ)	.	8ccJ)
=15	=15	=15
(8B-L	[2.F	(8ddL)
8AJ	.	8cc#J
8B-L	.	8ddL
8dJ	.	8ffJ
8cL	.	8eeL
8B-J)	.	8ddJ)
=16	=16	=16
8.dL	4F]	8.ffL
16B-Jk	.	16ddJk
4A	4F	4cc
4r	4r	4r
=17	=17	=17
4CC 4C	(8.ccL	4e 4g
.	16eeJk)	.
4EE 4E	8g'L	4r
.	8g'J	.
4GG 4G	8r	4r
.	8f 8b	.
=18	=18	=18
4C 4c	(8.ccL	4e 4g
.	16eeJk)	.
4EE 4E	8g'L	4r
.	8g'J	.
4GG 4G	8r	4r
.	8f 8b	.
=19	=19	=19
4C 4c	8ccL	4e
.	(16eeL	.
.	16ggJJ)	.
4EE 4E	8g'L	4r
.	8g'J	.
4GG 4G	8r	4r
.	8f 8b	.
*	*v	*v
=20	=20
4.CC; 4.C;	4.e; 4.cc;
(8A'	(8cc#'
8B-'L	8dd'L
8A'J)	8cc'J)
=21	=21
(8G'L	(8b-'L
8F'J	8a'J
8E'L	8g'L
8G'J	8b-'J
8F'L	8a'L
8E'J)	8g'J)
=22	=22
4F	8B-L 8e
.	8AJ 8f
4FF	4A 4f
4r	4r
*-	*-
